X:1
T:Heenan and Sayers
M:6/8
L:1/4
K:G
 c B/2| A B/2 A G/2| E- D/2 C E/2| G F/2D/2 D| D3/2 z G/2| A/2 A A|\
 A/2| A/2 d- d e/2| d c/2A/2 F| G3/2 z G/2| A A/2 A A/2| A/2- d z e/2|\
 d c/2A/2 G| c3/2 c B/2| A B/2 A G/2| E3/2 C E/2| G3/2 D D/2| D3/2||\
